icons/scalable/qubes-vm-shutdown.svg

<svg width="24" height="24" viewBox="0 0 24 24" fill="none" xmlns="http://www.w3.org/2000/svg">
<path d="M12 22C17.5228 22 22 17.5228 22 12C22 6.47715 17.5228 2 12 2C6.47715 2 2 6.47715 2 12C2 17.5228 6.47715 22 12 22Z" stroke="#6b7280" stroke-width="2" stroke-linecap="round" stroke-linejoin="round"/>
<path d="M14 9H10C9.44772 9 9 9.44772 9 10V14C9 14.5523 9.44772 15 10 15H14C14.5523 15 15 14.5523 15 14V10C15 9.44772 14.5523 9 14 9Z" stroke="#6b7280" stroke-width="2" stroke-linecap="round" stroke-linejoin="round"/>
</svg>

<svg xmlns="http://www.w3.org/2000/svg" width="24" height="24" fill="none">
    <path stroke="#6b7280" stroke-linecap="round" stroke-linejoin="round" stroke-width="2" d="M12 22c5.523 0 10-4.477 10-10S17.523 2 12 2 2 6.477 2 12s4.477 10 10 10"/>
    <path stroke="#6b7280" stroke-linecap="round" stroke-linejoin="round" stroke-width="2" d="M14 9h-4a1 1 0 0 0-1 1v4a1 1 0 0 0 1 1h4a1 1 0 0 0 1-1v-4a1 1 0 0 0-1-1"/>
</svg>
